icons/communication/forward-message-24.svg

<svg width="24" height="24" viewBox="0 0 24 24" fill="none" xmlns="http://www.w3.org/2000/svg">
<path fill-rule="evenodd" clip-rule="evenodd" d="M11.5004 8.2809V5.04503C11.5004 4.18971 12.5045 3.72914 13.1528 4.28711L20.6523 10.7421C21.1159 11.141 21.1159 11.8589 20.6523 12.2579L13.1528 18.7129C12.5045 19.2709 11.5004 18.8103 11.5004 17.955V14.8566C10.006 14.9148 8.6365 15.239 7.478 15.8863C6.20278 16.5988 5.14237 17.7247 4.44284 19.4158C4.30606 19.7464 3.95483 19.9344 3.60398 19.8646C3.25313 19.7949 3.00041 19.4869 3.00041 19.129V18C3.00041 15.0231 3.99689 12.5828 5.64738 10.8827C7.18291 9.30109 9.24926 8.39745 11.5004 8.2809ZM13.0004 9.00781V6.13508L19.2335 11.5L13.0004 16.8649V14.0932C13.0004 13.679 12.6562 13.347 12.1295 13.347C10.2602 13.347 8.31495 13.7006 6.74688 14.5767C5.96344 15.0144 5.25229 15.5771 4.63387 16.2762C4.92752 14.4584 5.68509 12.9968 6.72297 11.9278C8.07281 10.5374 9.93758 9.76801 12.0007 9.76801C12.7113 9.76801 13.0004 9.42202 13.0004 9.00781Z" fill="black"/>
</svg>

<svg xmlns="http://www.w3.org/2000/svg" width="24" height="24"><path fill-rule="evenodd" d="M11.5 8.28V5.046a1 1 0 011.653-.758l7.5 6.455a1 1 0 010 1.516l-7.5 6.455a1 1 0 01-1.653-.758v-3.098c-1.494.058-2.864.382-4.022 1.03-1.275.712-2.336 1.838-3.035 3.529A.75.75 0 013 19.129V18c0-2.977.997-5.417 2.647-7.117C7.183 9.3 9.25 8.397 11.5 8.28zm1.5.728V6.135l6.233 5.365L13 16.865v-2.772c0-.414-.344-.746-.87-.746-1.87 0-3.815.354-5.383 1.23-.784.437-1.495 1-2.113 1.7.294-1.819 1.051-3.28 2.089-4.35 1.35-1.39 3.215-2.159 5.278-2.159.71 0 1-.346 1-.76z"/></svg>
